svg/数据源图标-2.svg

<svg width="36" height="36" viewBox="0 0 36 36" fill="none" xmlns="http://www.w3.org/2000/svg">
<g clip-path="url(#clip0_2764_4123)">
<path fill-rule="evenodd" clip-rule="evenodd" d="M5.33519 6.20732C4.86852 7.47607 5.56852 5.66773 2.73935 15.424C2.21435 17.5094 1.54352 18.9677 1.06227 21.3011C0.780835 22.5784 0.595593 23.8751 0.508102 25.1802C0.500372 25.3958 0.550372 25.6095 0.65293 25.7992C0.755487 25.9889 0.906876 26.1478 1.09144 26.2594C2.8706 27.0031 13.4289 28.5781 15.8644 28.8698C15.9865 28.8729 16.1056 28.8307 16.1986 28.7514C16.2916 28.6721 16.352 28.5613 16.3683 28.4401C16.3846 28.319 16.3555 28.1961 16.2867 28.0951C16.2179 27.9941 16.1143 27.922 15.9956 27.8927C12.7435 27.3677 4.5331 25.7198 2.12685 24.9761C2.28727 21.8844 3.7456 18.0636 4.29977 15.8323L5.7581 9.99898C6.0206 8.74481 6.34144 6.17815 6.96852 5.5219C7.36227 5.12815 7.34769 5.21565 8.19352 5.36148C8.63102 5.36148 8.79144 4.5594 8.19352 4.42815C6.57477 4.01982 6.34144 3.65523 5.33519 6.20732Z" fill="#020202"/>
<path fill-rule="evenodd" clip-rule="evenodd" d="M27.0353 9.1242C26.1578 11.2873 25.5742 13.5582 25.2998 15.8763C25.2779 15.9859 25.2987 16.0999 25.3581 16.1946C25.4175 16.2894 25.511 16.3578 25.6193 16.3858C25.7276 16.4138 25.8425 16.3993 25.9404 16.3452C26.0383 16.2911 26.1117 16.2016 26.1457 16.095C26.3936 15.4096 26.6415 14.7388 26.904 14.0679C27.7207 11.9242 30.054 7.70962 27.7207 7.24295C27.6186 7.24295 26.7436 7.03878 26.0144 6.96587C25.2853 6.89295 24.9061 7.73878 25.7665 7.97212C25.7519 7.9867 27.3123 8.14712 27.0353 9.1242Z" fill="#020202"/>
<path fill-rule="evenodd" clip-rule="evenodd" d="M26.5249 3.42285C20.3562 1.26452 21.0999 1.29368 19.802 1.00202C17.6566 0.507609 15.4689 0.219492 13.2687 0.141602C11.0374 0.272852 10.4249 1.11868 9.73949 3.05827C7.69424 8.68801 6.20927 14.5058 5.30615 20.427C5.19417 20.9903 5.19417 21.57 5.30615 22.1333C5.44238 22.4285 5.67336 22.6698 5.9624 22.8187C7.84365 23.2124 11.7957 24.277 11.9707 24.277C13.1228 24.5249 14.8874 24.8166 15.7478 25.0208C15.8753 25.0525 16.0102 25.0338 16.1243 24.9686C16.2384 24.9034 16.3229 24.7967 16.3603 24.6708C16.5353 23.9853 15.8791 24.0583 12.7291 23.2124C6.37074 21.5208 6.80824 21.6374 6.89574 21.1999C6.98324 20.7624 7.0999 19.7416 7.28949 18.5895C9.7249 4.38535 10.1478 5.94577 10.3374 5.20202C10.5416 5.3041 10.7166 5.20202 12.6853 5.69785C13.5166 5.88743 14.3624 6.14993 15.1937 6.38327C20.1666 7.68118 20.3562 7.15618 22.6749 7.7541C22.7768 7.77025 22.8812 7.74985 22.9695 7.6965C23.0579 7.64315 23.1245 7.56029 23.1577 7.46256C23.1908 7.36483 23.1884 7.25852 23.1507 7.16243C23.1131 7.06634 23.0427 6.98665 22.952 6.93743C21.6832 6.38327 19.5249 5.9166 18.1395 5.4791C15.6865 4.76966 13.1526 4.37757 10.5999 4.31243H10.4978C11.8103 0.739518 11.9562 1.39577 20.2103 2.72285C23.4332 3.6416 22.2666 3.33535 25.3728 4.0791C24.1332 5.1291 23.3603 8.11868 22.4562 10.6562C21.7597 12.6719 21.2711 14.7536 20.9978 16.8687C20.9758 16.9783 20.9967 17.0923 21.0561 17.187C21.1155 17.2818 21.209 17.3502 21.3173 17.3782C21.4255 17.4062 21.5404 17.3917 21.6383 17.3376C21.7362 17.2835 21.8097 17.194 21.8437 17.0874C22.3506 15.6177 22.7646 14.1175 23.0832 12.5958C23.4439 11.2654 23.8772 9.95579 24.3812 8.67285C24.7402 7.53095 25.1888 6.41916 25.7228 5.34785C26.8603 4.03535 29.7332 5.01243 30.0978 6.42702C30.1462 7.47745 30.0381 8.52924 29.777 9.54785C29.3395 14.3166 28.1728 15.4979 28.9749 15.7604C29.0295 15.7786 29.0871 15.786 29.1445 15.7819C29.202 15.7779 29.258 15.7625 29.3095 15.7368C29.361 15.7111 29.4069 15.6754 29.4445 15.6319C29.4822 15.5884 29.5109 15.5379 29.5291 15.4833C30.5563 12.83 31.3516 10.0926 31.9062 7.30202C32.1832 4.38535 28.8728 2.73743 26.5249 3.42285Z" fill="#FBBF24"/>
<path fill-rule="evenodd" clip-rule="evenodd" d="M18.5479 11.9104C17.3081 11.2941 15.9947 10.8383 14.6396 10.5542C14.5375 10.525 11.4167 10.2188 11.3292 10.2188C11.2814 10.2496 11.2404 10.2898 11.2085 10.3369C11.1766 10.384 11.1546 10.4371 11.1437 10.4929C11.1328 10.5487 11.1333 10.6062 11.1451 10.6618C11.1569 10.7174 11.1798 10.7701 11.2125 10.8167C11.3347 10.9945 11.5074 11.1317 11.7083 11.2104C12.5605 11.5572 13.4321 11.8542 14.3187 12.1C14.4354 12.1 18.2854 12.8438 18.4021 12.8438C18.9271 12.9458 19.4667 12.3771 18.5479 11.9104Z" fill="#FBBF24"/>
<path fill-rule="evenodd" clip-rule="evenodd" d="M17.7894 17.5096C16.1152 16.7425 14.3586 16.17 12.554 15.8034C11.9741 15.758 11.3909 15.7874 10.8185 15.8909C10.1477 15.9784 9.6227 15.8909 9.69562 16.4013C9.76853 16.9117 10.1623 16.9117 10.8185 16.9992C13.0313 17.6274 15.2816 18.1145 17.556 18.4575C17.6722 18.4651 17.7873 18.4315 17.8811 18.3627C17.975 18.2939 18.0417 18.1943 18.0695 18.0813C18.0973 17.9683 18.0845 17.8491 18.0333 17.7446C17.9821 17.6401 17.8957 17.5569 17.7894 17.5096Z" fill="#FBBF24"/>
<path fill-rule="evenodd" clip-rule="evenodd" d="M33.525 21.2573C32.6614 20.2387 31.5719 19.4359 30.3431 18.9128C29.1144 18.3897 27.7805 18.1608 26.4477 18.2443C25.1148 18.3279 23.82 18.7216 22.6662 19.3941C21.5124 20.0666 20.5317 20.9992 19.8021 22.1178C17.3667 25.7053 18.6354 30.9698 21.0417 32.5157C21.1403 32.5739 21.2574 32.5925 21.3692 32.5677C21.4811 32.5429 21.5793 32.4766 21.6441 32.3821C21.7089 32.2877 21.7355 32.1721 21.7184 32.0589C21.7013 31.9456 21.6419 31.8431 21.5521 31.7719C19.6271 30.4303 18.7667 25.8219 20.9396 22.9344C21.5693 22.0504 22.3906 21.32 23.3423 20.7979C24.2939 20.2758 25.3512 19.9755 26.4351 19.9194C27.5191 19.8633 28.6017 20.0529 29.6021 20.474C30.6026 20.8951 31.4949 21.5367 32.2125 22.3511C35.7708 26.5657 33.6708 32.9678 27.3854 33.7115C26.2384 33.8711 25.0705 33.7866 23.9583 33.4636C23.8288 33.4211 23.6876 33.4317 23.5659 33.4933C23.4442 33.5548 23.3519 33.6622 23.3094 33.7917C23.2668 33.9213 23.2775 34.0625 23.339 34.1842C23.4006 34.3059 23.5079 34.3981 23.6375 34.4407C24.8827 34.8469 26.1995 34.986 27.5021 34.849C29.0614 34.8155 30.5789 34.3385 31.8771 33.4739C33.1752 32.6093 34.2001 31.3928 34.832 29.9668C35.4639 28.5409 35.6766 26.9644 35.4451 25.422C35.2136 23.8796 34.5476 22.435 33.525 21.2573Z" fill="#020202"/>
<path fill-rule="evenodd" clip-rule="evenodd" d="M24.9498 30.0365C26.6415 30.1386 28.6394 25.4281 29.3248 23.9115C29.5412 23.6718 29.6786 23.3714 29.7186 23.0511C29.713 22.9406 29.6726 22.8347 29.6032 22.7486C29.5339 22.6624 29.4391 22.6003 29.3324 22.5712C29.2257 22.5421 29.1125 22.5475 29.009 22.5865C28.9055 22.6255 28.817 22.6962 28.7561 22.7886C28.4061 23.2115 24.7457 28.5344 24.8332 28.6219C24.5415 28.6219 23.054 26.9011 22.8498 26.7698C22.6457 26.6386 21.9748 27.0177 22.3102 27.5136C22.9519 28.4323 23.9582 29.9927 24.9498 30.0365Z" fill="#020202"/>
</g>
<defs>
<clipPath id="clip0_2764_4123">
<rect width="35" height="35" fill="white" transform="translate(0.508057 0.0102539)"/>
</clipPath>
</defs>
</svg>

<svg fill="none" viewBox="0 0 36 36"><g fill-rule="evenodd" clip-path="url(#a)" clip-rule="evenodd"><path fill="#020202" d="M5.335 6.207c-.466 1.27.234-.54-2.596 9.217-.525 2.085-1.195 3.544-1.677 5.877a26 26 0 0 0-.554 3.88 1.21 1.21 0 0 0 .583 1.078c1.78.744 12.338 2.32 14.773 2.61a.496.496 0 0 0 .132-.976c-3.253-.525-11.463-2.173-13.87-2.917.161-3.092 1.62-6.912 2.174-9.144L5.758 10c.263-1.254.583-3.82 1.21-4.477.394-.394.38-.306 1.226-.16.437 0 .597-.803 0-.934-1.62-.408-1.853-.773-2.859 1.78"/><path fill="#020202" d="M27.035 9.124a26.1 26.1 0 0 0-1.735 6.752.438.438 0 0 0 .846.219c.248-.685.495-1.356.758-2.027.817-2.144 3.15-6.358.817-6.825-.102 0-.977-.204-1.707-.277-.729-.073-1.108.773-.247 1.006-.015.015 1.545.175 1.268 1.152"/><path fill="#FBBF24" d="M26.525 3.423c-6.169-2.158-5.425-2.13-6.723-2.421a34.5 34.5 0 0 0-6.533-.86c-2.232.13-2.844.977-3.53 2.916a91 91 0 0 0-4.433 17.369 4.4 4.4 0 0 0 0 1.706c.136.296.367.537.656.686 1.882.393 5.834 1.458 6.009 1.458 1.152.248 2.916.54 3.777.744a.51.51 0 0 0 .612-.35c.175-.686-.48-.613-3.63-1.459-6.36-1.691-5.922-1.575-5.834-2.012.087-.438.204-1.458.393-2.61C9.725 4.385 10.148 5.946 10.337 5.202c.205.102.38 0 2.348.496.832.19 1.677.452 2.509.685 4.973 1.298 5.162.773 7.48 1.371a.437.437 0 0 0 .278-.817c-1.269-.554-3.427-1.02-4.812-1.458a30 30 0 0 0-7.54-1.167h-.102C11.81.74 11.956 1.396 20.21 2.722c3.223.92 2.057.613 5.163 1.357-1.24 1.05-2.013 4.04-2.917 6.577a31.3 31.3 0 0 0-1.458 6.213.437.437 0 0 0 .846.218c.507-1.47.92-2.97 1.24-4.491q.54-1.997 1.297-3.923a23 23 0 0 1 1.342-3.325c1.137-1.313 4.01-.336 4.375 1.079.048 1.05-.06 2.102-.321 3.12-.437 4.77-1.604 5.95-.802 6.213a.44.44 0 0 0 .554-.277 49 49 0 0 0 2.377-8.181c.277-2.917-3.033-4.565-5.381-3.88"/><path fill="#FBBF24" d="M18.548 11.91a16.3 16.3 0 0 0-3.908-1.356c-.103-.029-3.223-.335-3.31-.335a.42.42 0 0 0-.117.598c.122.178.294.315.495.393a24 24 0 0 0 2.61.89c.117 0 3.967.744 4.084.744.525.102 1.065-.467.146-.934"/><path fill="#FBBF24" d="M17.79 17.51a24 24 0 0 0-5.236-1.707 6.8 6.8 0 0 0-1.735.088c-.671.087-1.196 0-1.123.51s.466.51 1.123.598a54 54 0 0 0 6.737 1.459.495.495 0 0 0 .233-.948"/><path fill="#020202" d="M33.525 21.257a8.575 8.575 0 0 0-13.723.86c-2.435 3.588-1.167 8.853 1.24 10.399a.452.452 0 0 0 .51-.744c-1.925-1.342-2.785-5.95-.612-8.838a7.204 7.204 0 0 1 11.272-.583c3.559 4.215 1.459 10.617-4.827 11.36a8.2 8.2 0 0 1-3.427-.247.514.514 0 1 0-.32.977 9.3 9.3 0 0 0 3.864.408 8.21 8.21 0 0 0 6.023-13.592"/><path fill="#020202" d="M24.95 30.037c1.692.102 3.69-4.609 4.375-6.125.216-.24.354-.54.394-.86a.524.524 0 0 0-.963-.263c-.35.422-4.01 5.745-3.923 5.833-.291 0-1.779-1.72-1.983-1.852-.204-.131-.875.248-.54.744.642.918 1.648 2.479 2.64 2.523"/></g><defs><clipPath id="a"/></defs></svg>
